brandFactory_export/1.Light/Sol _1Light.svg

<?xml version="1.0" encoding="UTF-8"?>
<svg width="24px" height="24px" viewBox="0 0 24 24" version="1.1" xmlns="http://www.w3.org/2000/svg" xmlns:xlink="http://www.w3.org/1999/xlink">
    <title>1.Light/Sol _1Light</title>
    <g id="Symbols" stroke="none" stroke-width="1" fill="none" fill-rule="evenodd">
        <g id="1.Light/Sol-_1Light" fill="#5CB615" fill-rule="nonzero">
            <path d="M12.2151261,19.1831933 L11.502521,19.1831933 C9.46890756,19.1529412 4.75630252,18.3966387 4.75630252,11.9327731 C4.75630252,5.48235294 9.42857143,4.74285714 11.4420168,4.72268908 L11.5831933,4.72268908 C11.7848739,4.72268908 11.989916,4.72268908 12.1714286,4.73277311 C14.2151261,4.78319328 18.957985,5.58319328 18.957985,11.9731092 C18.9613445,18.3630252 14.2453782,19.1428571 12.2151261,19.1831933 M23.1159664,11.2436975 L20.1008403,11.2436975 C20.0504202,11.2436975 20,11.2638655 19.9462185,11.2739496 C19.8151261,8.96806723 19.092437,7.3512605 18.097479,6.23865546 C18.1176471,6.22857143 18.1378151,6.21848739 18.1478992,6.20840336 L20.3327731,4.04369748 C20.5243697,3.84201681 20.5243697,3.51932773 20.3327731,3.32436975 C20.1310924,3.12268908 19.805042,3.12268908 19.610084,3.32436975 L17.4252101,5.48907563 C17.4151261,5.5092437 17.405042,5.52941176 17.394958,5.5394958 C15.5764706,4.02352941 13.3008403,3.76134454 12.3226891,3.7210084 L12.3226891,0.504201681 C12.3226891,0.221848739 12.0907563,0 11.8151261,0 C11.5327731,0 11.307563,0.221848739 11.307563,0.504201681 L11.307563,3.7210084 C10.302521,3.74117647 8.05714286,3.97310924 6.26890756,5.48907563 C6.2487395,5.46890756 6.23865546,5.4487395 6.21848739,5.42857143 L4.10420168,3.32436975 C3.91260504,3.12268908 3.58655462,3.12268908 3.39159664,3.32436975 C3.18991597,3.51596639 3.18991597,3.83865546 3.39159664,4.04369748 L5.50588235,6.14789916 C5.52605042,6.15798319 5.54621849,6.16806723 5.56638655,6.18823529 C4.60168067,7.30084034 3.88907563,8.92773109 3.76806723,11.2773109 C3.72773109,11.2672269 3.68739496,11.2470588 3.64705882,11.2470588 L0.507563025,11.2470588 C0.221848739,11.2470588 0,11.4789916 0,11.7512605 C0,12.0369748 0.225210084,12.2554622 0.507563025,12.2554622 L3.64705882,12.2554622 C3.68739496,12.2554622 3.71764706,12.2453782 3.7512605,12.2352941 C3.81176471,14.6016807 4.4605042,16.2588235 5.37815126,17.4319328 C5.35798319,17.4420168 5.33781513,17.4521008 5.31764706,17.4722689 L3.21344538,19.5529412 C3.01848739,19.7546218 3.01848739,20.0806723 3.21344538,20.2722689 C3.31428571,20.3731092 3.44537815,20.4235294 3.5697479,20.4235294 C3.6907563,20.4235294 3.80504202,20.3731092 3.89579832,20.302521 C3.97647059,20.2722689 4.04705882,20.2420168 4.10756303,20.1815126 L6.02689076,18.2722689 C6.04705882,18.2521008 6.05714286,18.2218487 6.07731092,18.1915966 C7.88571429,19.8588235 10.2420168,20.1512605 11.307563,20.1915966 L11.307563,23.1159664 C11.307563,23.3882353 11.5327731,23.6201681 11.8151261,23.6201681 C12.0907563,23.6201681 12.3226891,23.3882353 12.3226891,23.1159664 L12.3226891,20.1915966 C13.3210084,20.1613445 15.7680672,19.8890756 17.6268908,18.1781513 C17.6470588,18.2084034 17.6672269,18.2487395 17.697479,18.2789916 L19.6067227,20.1815126 C19.7109244,20.2823529 19.8319328,20.3226891 19.9630252,20.3226891 C20.0941176,20.3226891 20.2285714,20.2823529 20.3294118,20.1815126 C20.5210084,19.9798319 20.5210084,19.6672269 20.3294118,19.4621849 L18.410084,17.5596639 C18.3798319,17.5193277 18.3394958,17.4991597 18.2857143,17.4789916 C19.2403361,16.3058824 19.912605,14.6285714 19.9630252,12.2319328 C20.0033613,12.2420168 20.0436975,12.2521008 20.0941176,12.2521008 L23.1092437,12.2521008 C23.394958,12.2521008 23.6169555,12.0302521 23.6169555,11.7478992 C23.6235294,11.4789916 23.4016807,11.2436975 23.1159664,11.2436975" id="Sol-_1Light"></path>
        </g>
    </g>
</svg>

<svg width="24" height="24" viewBox="0 0 24 24" xmlns="http://www.w3.org/2000/svg"><path d="M12.215 19.183h-.712c-2.034-.03-6.747-.786-6.747-7.25 0-6.45 4.673-7.19 6.686-7.21h.141c.202 0 .407 0 .588.01 2.044.05 6.787.85 6.787 7.24.003 6.39-4.713 7.17-6.743 7.21m10.901-7.94h-3.015c-.05 0-.101.02-.155.03-.13-2.305-.854-3.922-1.849-5.034a.22.22 0 00.05-.03l2.186-2.165a.522.522 0 000-.72.507.507 0 00-.723 0L17.425 5.49a.22.22 0 01-.03.05c-1.819-1.515-4.094-1.778-5.072-1.818V.504A.506.506 0 0011.815 0a.502.502 0 00-.507.504v3.217c-1.005.02-3.25.252-5.04 1.768-.02-.02-.03-.04-.05-.06L4.104 3.324a.495.495 0 00-.712 0 .503.503 0 000 .72l2.114 2.104c.02.01.04.02.06.04-.964 1.113-1.677 2.74-1.798 5.09-.04-.01-.08-.03-.12-.03H.507A.506.506 0 000 11.75a.5.5 0 00.508.504h3.14c.04 0 .07-.01.103-.02.06 2.367.71 4.024 1.627 5.197-.02.01-.04.02-.06.04l-2.105 2.08a.515.515 0 000 .72c.101.101.232.152.357.152a.54.54 0 00.326-.121c.08-.03.151-.061.212-.121l1.919-1.91c.02-.02.03-.05.05-.08 1.809 1.667 4.165 1.96 5.23 2v2.924c0 .272.226.504.508.504a.513.513 0 00.508-.504v-2.924c.998-.03 3.445-.303 5.304-2.014.02.03.04.07.07.101l1.91 1.903c.104.1.225.14.356.14a.51.51 0 00.366-.14.522.522 0 000-.72L18.41 17.56a.252.252 0 00-.124-.081c.954-1.173 1.627-2.85 1.677-5.247.04.01.08.02.131.02h3.015a.5.5 0 00.508-.504.499.499 0 00-.501-.504" fill="#5CB615" fill-rule="nonzero"/></svg>
